X: 1
T: the Hills of Alva
O: Central Scotland
Z: Ted Hastings <hastings@almac.co.UK>, John Chambers <jc@trillian.mit.edu>
M: 4/4
L: 1/8
R: March
K: D
A \
| f2 fa g2 e>f | ge Ae d2 A2 |1 B<d GB A2 a2 | g>f ed dc BA \
                            :|2 Bd gB Aa a>g | fe aA d2 d :|
|: A \
| a2 a>g fd A2 | A>B df e2 A2 |1 g2 gf ec A2 | g>f ed dc BA \
                             :|2 Bd gB Aa a>g | f>e aA d2 d :|
|: f \
| A>B A2 d>e d2 | f>g fe d2 A2 |1 B>d g2 A>d f2 | g>f ed dc BA \
                              :|2 B>d gB Aa a>g | fe aA d2 d :|
|: f \
| a>f ge df A2 | A>B ed B2 A2 |1 g>f eA ce a2 | g>f ed dc BA \
                             :|2 Bd gB Aa a>g | fe aA d2 d :|
